apps/32/pidgin.svg

<?xml version="1.0" encoding="UTF-8" standalone="no"?>
<!-- Created with Inkscape (http://www.inkscape.org/) -->

<svg
   xmlns:svg="http://www.w3.org/2000/svg"
   xmlns="http://www.w3.org/2000/svg"
   xmlns:xlink="http://www.w3.org/1999/xlink"
   version="1.0"
   width="32"
   height="32"
   id="svg3979">
  <defs
     id="defs3981">
    <linearGradient
       id="linearGradient4588">
      <stop
         id="stop4591"
         style="stop-color:black;stop-opacity:0.3255814"
         offset="0" />
      <stop
         id="stop4590"
         style="stop-color:black;stop-opacity:0.19215687"
         offset="0.5" />
      <stop
         id="stop4589"
         style="stop-color:black;stop-opacity:0"
         offset="1" />
    </linearGradient>
    <radialGradient
       cx="6.702713"
       cy="73.615715"
       r="7.228416"
       fx="6.702713"
       fy="73.615715"
       id="radialGradient3436"
       xlink:href="#linearGradient4588"
       gradientUnits="userSpaceOnUse"
       gradientTransform="matrix(2.2134622,0,0,0.4851991,1.1638,-7.2254955)" />
    <linearGradient
       id="linearGradient3332-412-419">
      <stop
         id="stop2554"
         style="stop-color:#611358;stop-opacity:1"
         offset="0" />
      <stop
         id="stop2556"
         style="stop-color:#a1619b;stop-opacity:1"
         offset="1" />
    </linearGradient>
    <linearGradient
       x1="18.138792"
       y1="45.21809"
       x2="18.138792"
       y2="2.9999995"
       id="linearGradient3456"
       xlink:href="#linearGradient3332-412-419"
       gradientUnits="userSpaceOnUse"
       gradientTransform="matrix(0.6444819,0,0,0.6585761,0.5324327,0.1941734)" />
    <linearGradient
       id="linearGradient3242-593-605">
      <stop
         id="stop2544"
         style="stop-color:#d196bf;stop-opacity:1"
         offset="0" />
      <stop
         id="stop2546"
         style="stop-color:#bb70b6;stop-opacity:1"
         offset="0.26238" />
      <stop
         id="stop2548"
         style="stop-color:#954a9a;stop-opacity:1"
         offset="0.66093999" />
      <stop
         id="stop2550"
         style="stop-color:#6c3b77;stop-opacity:1"
         offset="1" />
    </linearGradient>
    <radialGradient
       cx="20.248743"
       cy="4.9115634"
       r="23"
       fx="20.248743"
       fy="4.9115634"
       id="radialGradient3454"
       xlink:href="#linearGradient3242-593-605"
       gradientUnits="userSpaceOnUse"
       gradientTransform="matrix(0,1.0196732,-1.2489421,0,21.39771,-18.484713)" />
    <linearGradient
       id="linearGradient4593">
      <stop
         id="stop12409"
         style="stop-color:white;stop-opacity:0.70200002"
         offset="0" />
      <stop
         id="stop12411"
         style="stop-color:white;stop-opacity:0"
         offset="1" />
    </linearGradient>
    <linearGradient
       x1="27.197557"
       y1="2.742018"
       x2="27.197557"
       y2="45.269829"
       id="linearGradient3977"
       xlink:href="#linearGradient4593"
       gradientUnits="userSpaceOnUse"
       gradientTransform="matrix(0.6444819,0,0,0.6585761,0.5324327,0.1941734)" />
  </defs>
  <g
     id="layer1">
    <path
       d="M 31.999824,28.492779 C 31.999824,30.429763 24.836459,32 16.000001,32 7.1635418,32 1.7645e-4,30.429763 1.7645e-4,28.492779 c 0,-1.936985 7.16336535,-3.507221 15.99982455,-3.507221 8.836458,0 15.999823,1.570236 15.999823,3.507221 z"
       id="path10689"
       style="opacity:0.4;fill:url(#radialGradient3436);fill-opacity:1;fill-rule:nonzero;stroke:none;stroke-width:0.71986049;marker:none;visibility:visible;display:inline;overflow:visible" />
    <path
       d="M 13.945831,2.6857928 C 6.5226988,3.8041288 1.0300328,9.0304885 1.5291015,14.68925 c 0.3231683,3.664278 3.075423,6.680295 7.0112553,8.271586 l -1.6428707,6.541539 7.2679409,-5.371293 0.05025,-0.0047 c 0.896915,0.04381 1.797995,0.05833 2.733057,-0.02885 C 24.927915,23.353663 30.994489,17.9281 30.470872,11.991041 29.947258,6.0539801 23.030432,1.8388455 15.051245,2.5827365 14.67722,2.6176051 14.310904,2.6307934 13.945831,2.6857928 z"
       id="path6145"
       style="fill:url(#radialGradient3454);fill-opacity:1;fill-rule:evenodd;stroke:url(#linearGradient3456);stroke-width:0.99525023;stroke-linecap:butt;stroke-linejoin:round;stroke-miterlimit:4;stroke-opacity:1;stroke-dasharray:none;stroke-dashoffset:0;marker:none;visibility:visible;display:inline;overflow:visible" />
    <path
       d="m 15.45622,5.4422036 c -0.696168,-0.1019153 -1.410678,0.4367302 -1.429945,1.0084439 2.43e-4,0.00686 2.43e-4,0.013723 0,0.02058 -0.0037,0.046609 0.0093,0.1106011 0.02014,0.2058061 0.0011,0.00944 -0.0011,0.010492 0,0.020581 0.628869,3.0331106 0.843161,6.0770224 1.470224,9.0554214 0.380184,-0.04153 0.970896,-0.12117 1.369524,-0.164644 -0.08638,-2.93916 -0.34807,-5.8590351 -0.382661,-8.829036 -2.43e-4,-0.00686 -2.43e-4,-0.013722 0,-0.020581 0.05686,-0.5783152 -0.324048,-1.2314069 -1.027144,-1.2965712 -0.0067,2.472e-4 -0.01343,2.472e-4 -0.02014,0 l 0,0 z M 16.765323,17.93457 c -0.396939,-0.04178 -0.78946,0.06603 -1.047283,0.370448 2.43e-4,0.0069 2.43e-4,0.01372 0,0.02058 -0.276662,0.293834 -0.435627,0.716378 -0.382662,1.111347 2.44e-4,0.0069 2.44e-4,0.01372 0,0.02058 0.06414,0.858232 1.090865,1.42542 1.832747,1.070186 0.0067,-2.49e-4 0.01343,-2.49e-4 0.02014,0 0.722607,-0.279166 1.026601,-1.341263 0.563922,-1.996308 -0.0071,-0.0065 -0.01378,-0.01337 -0.02014,-0.02058 -0.212155,-0.341112 -0.57312,-0.534829 -0.966722,-0.576254 z"
       id="path3393"
       style="font-size:62.4582634px;font-style:normal;font-variant:normal;font-weight:normal;font-stretch:normal;text-align:start;line-height:125%;writing-mode:lr-tb;text-anchor:start;fill:white;fill-opacity:1;stroke:none;font-family:Georgia" />
    <path
       d="M 15.15625,3.5625 C 14.726438,3.602569 14.364179,3.615509 14.09375,3.65625 10.570796,4.1870026 7.5060676,5.6958928 5.4375,7.6875 3.3689324,9.6791072 2.2806155,12.106227 2.5,14.59375 2.7843994,17.818443 5.2261081,20.574587 8.90625,22.0625 9.3654954,22.245172 9.619123,22.739078 9.5,23.21875 L 8.53125,27.0625 13.5625,23.34375 c 0.168586,-0.136032 0.377205,-0.212892 0.59375,-0.21875 l 0.0625,0 c 0.02083,-6.59e-4 0.04167,-6.59e-4 0.0625,0 0.874089,0.04269 1.693347,0.08103 2.5625,0 3.792149,-0.353538 7.102389,-1.845841 9.375,-3.875 C 28.491361,17.220841 29.730121,14.702987 29.5,12.09375 29.269778,9.4833501 27.613767,7.2015406 25.03125,5.625 22.448733,4.0484594 18.94798,3.2090011 15.15625,3.5625 z"
       id="path3975"
       style="opacity:0.4;fill:none;stroke:url(#linearGradient3977);stroke-width:0.99525023;stroke-linecap:butt;stroke-linejoin:round;stroke-miterlimit:4;stroke-opacity:1;stroke-dasharray:none;stroke-dashoffset:0;marker:none;visibility:visible;display:inline;overflow:visible" />
  </g>
</svg>

<?xml version="1.0" encoding="UTF-8" standalone="no"?>
<!-- Created with Inkscape (http://www.inkscape.org/) -->
<svg
   xmlns:svg="http://www.w3.org/2000/svg"
   xmlns="http://www.w3.org/2000/svg"
   xmlns:xlink="http://www.w3.org/1999/xlink"
   version="1.0"
   width="32"
   height="32"
   id="svg3979">
  <defs
     id="defs3981">
    <linearGradient
       id="linearGradient4588">
      <stop
         id="stop4591"
         style="stop-color:#000000;stop-opacity:0.3255814"
         offset="0" />
      <stop
         id="stop4590"
         style="stop-color:#000000;stop-opacity:0.19215687"
         offset="0.5" />
      <stop
         id="stop4589"
         style="stop-color:#000000;stop-opacity:0"
         offset="1" />
    </linearGradient>
    <radialGradient
       cx="6.702713"
       cy="73.615715"
       r="7.228416"
       fx="6.702713"
       fy="73.615715"
       id="radialGradient3436"
       xlink:href="#linearGradient4588"
       gradientUnits="userSpaceOnUse"
       gradientTransform="matrix(2.2134622,0,0,0.4851991,1.1638,-7.2254955)" />
    <linearGradient
       id="linearGradient3332-412-419">
      <stop
         id="stop2554"
         style="stop-color:#611358;stop-opacity:1"
         offset="0" />
      <stop
         id="stop2556"
         style="stop-color:#a1619b;stop-opacity:1"
         offset="1" />
    </linearGradient>
    <linearGradient
       x1="18.138792"
       y1="45.21809"
       x2="18.138792"
       y2="2.9999995"
       id="linearGradient3456"
       xlink:href="#linearGradient3332-412-419"
       gradientUnits="userSpaceOnUse"
       gradientTransform="matrix(0.6444819,0,0,0.6585761,0.5324327,0.1941734)" />
    <linearGradient
       id="linearGradient3242-593-605">
      <stop
         id="stop2544"
         style="stop-color:#d196bf;stop-opacity:1"
         offset="0" />
      <stop
         id="stop2546"
         style="stop-color:#bb70b6;stop-opacity:1"
         offset="0.26238" />
      <stop
         id="stop2548"
         style="stop-color:#954a9a;stop-opacity:1"
         offset="0.66093999" />
      <stop
         id="stop2550"
         style="stop-color:#6c3b77;stop-opacity:1"
         offset="1" />
    </linearGradient>
    <radialGradient
       cx="20.248743"
       cy="4.9115634"
       r="23"
       fx="20.248743"
       fy="4.9115634"
       id="radialGradient3454"
       xlink:href="#linearGradient3242-593-605"
       gradientUnits="userSpaceOnUse"
       gradientTransform="matrix(0,1.0196732,-1.2489421,0,21.39771,-18.484713)" />
    <linearGradient
       id="linearGradient4593">
      <stop
         id="stop12409"
         style="stop-color:#ffffff;stop-opacity:0.70200002"
         offset="0" />
      <stop
         id="stop12411"
         style="stop-color:#ffffff;stop-opacity:0"
         offset="1" />
    </linearGradient>
    <linearGradient
       x1="27.197557"
       y1="2.742018"
       x2="27.197557"
       y2="45.269829"
       id="linearGradient3977"
       xlink:href="#linearGradient4593"
       gradientUnits="userSpaceOnUse"
       gradientTransform="matrix(0.6444819,0,0,0.6585761,0.5324327,0.1941734)" />
  </defs>
  <g
     id="layer1">
    <path
       d="M 31.999824,28.492779 C 31.999824,30.429763 24.836459,32 16.000001,32 C 7.1635418,32 0.00017645,30.429763 0.00017645,28.492779 C 0.00017645,26.555794 7.1635418,24.985558 16.000001,24.985558 C 24.836459,24.985558 31.999824,26.555794 31.999824,28.492779 z"
       id="path10689"
       style="opacity:0.4;fill:url(#radialGradient3436);fill-opacity:1;fill-rule:nonzero;stroke:none;stroke-width:0.71986049;stroke-linecap:butt;stroke-linejoin:miter;marker:none;marker-start:none;marker-mid:none;marker-end:none;stroke-miterlimit:0;stroke-dasharray:none;stroke-dashoffset:0;stroke-opacity:1;visibility:visible;display:inline;overflow:visible" />
    <path
       d="M 13.945831,2.6857928 C 6.5226988,3.8041288 1.0300328,9.0304885 1.5291015,14.68925 C 1.8522698,18.353528 4.6045245,21.369545 8.5403568,22.960836 L 6.8974861,29.502375 L 14.165427,24.131082 L 14.215672,24.126399 C 15.112587,24.170206 16.013667,24.184729 16.948729,24.097553 C 24.927915,23.353663 30.994489,17.9281 30.470872,11.991041 C 29.947258,6.0539801 23.030432,1.8388455 15.051245,2.5827365 C 14.67722,2.6176051 14.310904,2.6307934 13.945831,2.6857928 z"
       id="path6145"
       style="fill:url(#radialGradient3454);fill-opacity:1;fill-rule:evenodd;stroke:url(#linearGradient3456);stroke-width:0.99525023;stroke-linecap:butt;stroke-linejoin:round;marker:none;marker-start:none;marker-mid:none;marker-end:none;stroke-miterlimit:4;stroke-dasharray:none;stroke-dashoffset:0;stroke-opacity:1;visibility:visible;display:inline;overflow:visible" />
    <path
       d="M 15.45622,5.4422036 C 14.760052,5.3402883 14.045542,5.8789338 14.026275,6.4506475 C 14.026518,6.4575051 14.026518,6.4643706 14.026275,6.4712273 C 14.022608,6.5178366 14.035574,6.5818284 14.046415,6.6770334 C 14.04749,6.6864686 14.045312,6.6875255 14.046415,6.6976142 C 14.675284,9.7307248 14.889576,12.774637 15.516639,15.753036 C 15.896823,15.711506 16.487535,15.631866 16.886163,15.588392 C 16.79978,12.649232 16.538093,9.7293565 16.503502,6.7593556 C 16.503259,6.752498 16.503259,6.7456335 16.503502,6.7387748 C 16.56036,6.1604596 16.179454,5.5073679 15.476358,5.4422036 C 15.469648,5.4424508 15.46293,5.4424508 15.45622,5.4422036 L 15.45622,5.4422036 z M 16.765323,17.93457 C 16.368384,17.892794 15.975863,18.000603 15.71804,18.305018 C 15.718283,18.311876 15.718283,18.318741 15.71804,18.325599 C 15.441378,18.619433 15.282413,19.041977 15.335378,19.436946 C 15.335622,19.443804 15.335622,19.45067 15.335378,19.457527 C 15.399515,20.315759 16.426243,20.882947 17.168125,20.527713 C 17.174836,20.527464 17.181554,20.527464 17.188264,20.527713 C 17.910871,20.248547 18.214865,19.18645 17.752186,18.531405 C 17.745133,18.524899 17.73841,18.518031 17.732045,18.510824 C 17.51989,18.169712 17.158925,17.975995 16.765323,17.93457 z"
       id="path3393"
       style="font-size:62.4582634px;font-style:normal;font-variant:normal;font-weight:normal;font-stretch:normal;text-align:start;line-height:125%;writing-mode:lr-tb;text-anchor:start;fill:#ffffff;fill-opacity:1;stroke:none;stroke-width:1.00100005;stroke-linecap:round;stroke-linejoin:round;stroke-miterlimit:4;stroke-dasharray:none;stroke-opacity:1;font-family:Georgia" />
    <path
       d="M 15.15625,3.5625 C 14.726438,3.6025694 14.364179,3.6155091 14.09375,3.65625 C 10.570796,4.1870026 7.5060676,5.6958928 5.4375,7.6875 C 3.3689324,9.6791072 2.2806155,12.106227 2.5,14.59375 C 2.7843994,17.818443 5.2261081,20.574587 8.90625,22.0625 C 9.3654954,22.245172 9.619123,22.739078 9.5,23.21875 L 8.53125,27.0625 L 13.5625,23.34375 C 13.731086,23.207718 13.939705,23.130858 14.15625,23.125 L 14.21875,23.125 C 14.239578,23.124341 14.260422,23.124341 14.28125,23.125 C 15.155339,23.167693 15.974597,23.206031 16.84375,23.125 C 20.635899,22.771462 23.946139,21.279159 26.21875,19.25 C 28.491361,17.220841 29.730121,14.702987 29.5,12.09375 C 29.269778,9.4833501 27.613767,7.2015406 25.03125,5.625 C 22.448733,4.0484594 18.94798,3.2090011 15.15625,3.5625 z"
       id="path3975"
       style="opacity:0.4;fill:none;fill-opacity:1;fill-rule:evenodd;stroke:url(#linearGradient3977);stroke-width:0.99525023;stroke-linecap:butt;stroke-linejoin:round;marker:none;marker-start:none;marker-mid:none;marker-end:none;stroke-miterlimit:4;stroke-dasharray:none;stroke-dashoffset:0;stroke-opacity:1;visibility:visible;display:inline;overflow:visible" />
  </g>
</svg>
